app/images/checked_red.svg

<?xml version="1.0" encoding="UTF-8"?>
<svg xmlns="http://www.w3.org/2000/svg" xmlns:xlink="http://www.w3.org/1999/xlink" viewBox="0 0 12 12" width="12px" height="12px">
<g id="surface29473681">
<path style=" stroke:none;fill-rule:nonzero;fill:#fe3e57;fill-opacity:1;" d="M 10.792969 2.394531 C 10.6875 2.398438 10.589844 2.441406 10.515625 2.515625 L 4.398438 8.632812 L 1.882812 6.117188 C 1.78125 6.011719 1.632812 5.96875 1.492188 6.007812 C 1.351562 6.042969 1.242188 6.152344 1.207031 6.292969 C 1.171875 6.433594 1.210938 6.582031 1.316406 6.683594 L 4.117188 9.484375 C 4.273438 9.640625 4.527344 9.640625 4.683594 9.484375 L 11.082031 3.082031 C 11.199219 2.96875 11.238281 2.792969 11.171875 2.640625 C 11.109375 2.488281 10.957031 2.390625 10.792969 2.394531 Z M 10.792969 2.394531 "/>
</g>
</svg>

<svg xmlns="http://www.w3.org/2000/svg" width="12" height="12"><path d="M10.793 2.395a.411.411 0 00-.277.12L4.398 8.634 1.883 6.117a.394.394 0 00-.39-.11.391.391 0 00-.286.286.402.402 0 00.11.39l2.8 2.801a.4.4 0 00.567 0l6.398-6.402a.4.4 0 00-.29-.688zm0 0" fill="#fe3e57" id="surface29473681"/></svg>
